X: 1
T: Blow It Again
M: 2/4
L: 1/8
R: polka
K: Amix
|:cd|e>f ed|cB cA|g>a gf|eA cd|e>f ed|cB Ac|Bc dc|B2 cd|
e>f ed|cB cA|g>a gf|e2 cA|d>e dc|BA cB|A2 A2|A2:|
|: cd|e>a ga|eA cd|e>a ga|e2 ef|g>a gf|ec Ac|Bc dc|B2 cd|
e>a ga|eA cd|e>a ga|e2 cA|d>e dc|BA cB|A2 A2|A2:|
